Icons/rename_me_ds_video.svg

<svg viewBox="0 0 48 48"><defs><linearGradient id="linearGradient3764" x1="1" x2="47" gradientUnits="userSpaceOnUse" gradientTransform="translate(-48.000001,0.00221467)"><stop stop-color="#54349c" stop-opacity="1"/><stop offset="1" stop-color="#5c39ac" stop-opacity="1"/></linearGradient><clipPath id="clipPath-132728800"><g transform="translate(0,-1004.3622)"><rect rx="4" y="1005.36" x="1" height="46" width="46" fill="#1890d0"/></g></clipPath><clipPath id="clipPath-145600509"><g transform="translate(0,-1004.3622)"><rect rx="4" y="1005.36" x="1" height="46" width="46" fill="#1890d0"/></g></clipPath></defs><g><path d="m 1 43 l 0 0.25 c 0 2.216 1.784 4 4 4 l 38 0 c 2.216 0 4 -1.784 4 -4 l 0 -0.25 c 0 2.216 -1.784 4 -4 4 l -38 0 c -2.216 0 -4 -1.784 -4 -4 z m 0 0.5 l 0 0.5 c 0 2.216 1.784 4 4 4 l 38 0 c 2.216 0 4 -1.784 4 -4 l 0 -0.5 c 0 2.216 -1.784 4 -4 4 l -38 0 c -2.216 0 -4 -1.784 -4 -4 z" opacity="0.02"/><path d="m 1 43.25 l 0 0.25 c 0 2.216 1.784 4 4 4 l 38 0 c 2.216 0 4 -1.784 4 -4 l 0 -0.25 c 0 2.216 -1.784 4 -4 4 l -38 0 c -2.216 0 -4 -1.784 -4 -4 z" opacity="0.05"/><path d="m 1 43 l 0 0.25 c 0 2.216 1.784 4 4 4 l 38 0 c 2.216 0 4 -1.784 4 -4 l 0 -0.25 c 0 2.216 -1.784 4 -4 4 l -38 0 c -2.216 0 -4 -1.784 -4 -4 z" opacity="0.1"/></g><g><rect width="46" height="46" x="-47" y="1" rx="4" transform="matrix(0,-1,1,0,0,0)" fill="url(#linearGradient3764)" fill-opacity="1"/></g><g><g clip-path="url(#clipPath-132728800)"><g opacity="0.1"><!-- color: #5c39ac --><g><path d="m 11.891 14 c -0.484 0 -0.891 0.395 -0.891 0.875 c 0 6.207 0 12.695 0 18.281 c 0 0.477 0.406 0.844 0.891 0.844 l 24.22 0 c 0.484 0 0.891 -0.367 0.891 -0.844 c 0 -6.199 0 -12.633 0 -18.281 c 0 -0.48 -0.406 -0.875 -0.891 -0.875 m -23.11 1 l 2 0 l 0 2 l -2 0 m 4 -2 l 2 0 l 0 2 l -2 0 m 4 -2 l 2 0 l 0 2 l -2 0 m 4 -2 l 2 0 l 0 2 l -2 0 m 4 -2 l 2 0 l 0 2 l -2 0 m 4 -2 l 2 0 l 0 2 l -2 0 m -20 1 l 22 0 l 0 12 l -22 0 m 0 1 l 2 0 l 0 2 l -2 0 m 4 -2 l 2 0 l 0 2 l -2 0 m 4 -2 l 2 0 l 0 2 l -2 0 m 4 -2 l 2 0 l 0 2 l -2 0 m 4 -2 l 2 0 l 0 2 l -2 0 m 4 -2 l 2 0 l 0 2 l -2 0 m 0 -2" fill="#000"/><path d="m 22 20 l 0 8 l 6 -4 m -6 -4" fill="#000"/></g></g></g></g><g><g clip-path="url(#clipPath-145600509)"><g transform="translate(0,-1)"><!-- color: #5c39ac --><g><path d="m 11.891 14 c -0.484 0 -0.891 0.395 -0.891 0.875 c 0 6.207 0 12.695 0 18.281 c 0 0.477 0.406 0.844 0.891 0.844 l 24.22 0 c 0.484 0 0.891 -0.367 0.891 -0.844 c 0 -6.199 0 -12.633 0 -18.281 c 0 -0.48 -0.406 -0.875 -0.891 -0.875 m -23.11 1 l 2 0 l 0 2 l -2 0 m 4 -2 l 2 0 l 0 2 l -2 0 m 4 -2 l 2 0 l 0 2 l -2 0 m 4 -2 l 2 0 l 0 2 l -2 0 m 4 -2 l 2 0 l 0 2 l -2 0 m 4 -2 l 2 0 l 0 2 l -2 0 m -20 1 l 22 0 l 0 12 l -22 0 m 0 1 l 2 0 l 0 2 l -2 0 m 4 -2 l 2 0 l 0 2 l -2 0 m 4 -2 l 2 0 l 0 2 l -2 0 m 4 -2 l 2 0 l 0 2 l -2 0 m 4 -2 l 2 0 l 0 2 l -2 0 m 4 -2 l 2 0 l 0 2 l -2 0 m 0 -2" fill="#f9f9f9"/><path d="m 22 20 l 0 8 l 6 -4 m -6 -4" fill="#f9f9f9"/></g></g></g></g><g><g transform="translate(0,-1004.3622)"><path d="m 1 1043.36 0 4 c 0 2.216 1.784 4 4 4 l 38 0 c 2.216 0 4 -1.784 4 -4 l 0 -4 c 0 2.216 -1.784 4 -4 4 l -38 0 c -2.216 0 -4 -1.784 -4 -4 z" opacity="0.1"/></g></g></svg>

<svg viewBox="0 0 48 48" xmlns:xlink="http://www.w3.org/1999/xlink">
 <defs>
  <linearGradient id="0">
   <stop stop-opacity="0"/>
   <stop offset="1"/>
  </linearGradient>
  <linearGradient xlink:href="#0" id="1" gradientUnits="userSpaceOnUse" gradientTransform="translate(4e-7,-48)" y1="47" x2="0" y2="1"/>
  <clipPath id="2">
   <g transform="translate(0,-1004.3622)">
    <rect rx="4" y="1005.36" x="1" height="46" width="46" fill="#1890d0"/>
   </g>
  </clipPath>
  <clipPath id="3">
   <g transform="translate(0,-1004.3622)">
    <rect rx="4" y="1005.36" x="1" height="46" width="46" fill="#1890d0"/>
   </g>
  </clipPath>
 </defs>
 <g>
  <g transform="translate(0,-1004.3622)">
   <path d="m 5,1006.3622 c -2.216,0 -4,1.784 -4,4 l 0,37.25 c 0,2.216 1.784,4 4,4 l 38,0 c 2.216,0 4,-1.784 4,-4 l 0,-37.25 c 0,-2.216 -1.784,-4 -4,-4 l -38,0 z m -4,41.5 0,0.5 c 0,2.216 1.784,4 4,4 l 38,0 c 2.216,0 4,-1.784 4,-4 l 0,-0.5 c 0,2.216 -1.784,4 -4,4 l -38,0 c -2.216,0 -4,-1.784 -4,-4 z" opacity="0.02"/>
   <path d="m 1,1047.6122 0,0.25 c 0,2.216 1.784,4 4,4 l 38,0 c 2.216,0 4,-1.784 4,-4 l 0,-0.25 c 0,2.216 -1.784,4 -4,4 l -38,0 c -2.216,0 -4,-1.784 -4,-4 z" opacity="0.05"/>
   <rect width="46" height="46" x="1" y="1005.61" rx="4" opacity="0.1"/>
  </g>
 </g>
 <g>
  <g transform="translate(0,-1004.3622)">
   <rect rx="4" y="1005.36" x="1" height="46" width="46" fill="#5c39ac"/>
  </g>
 </g>
 <g>
  <rect transform="scale(1,-1)" width="46" height="46" x="1" y="-46.998" rx="4" opacity="0.1" fill="url(#1)"/>
 </g>
 <g>
  <g clip-path="url(#2)">
   <g opacity="0.1">
    <g>
     <path d="M 11.890625 14 C 11.40625 14 11 14.394531 11 14.875 C 11 21.082031 11 27.570312 11 33.15625 C 11 33.632812 11.40625 34 11.890625 34 L 36.109375 34 C 36.59375 34 37 33.632812 37 33.15625 C 37 26.957031 37 20.523438 37 14.875 C 37 14.394531 36.59375 14 36.109375 14 Z M 13 15 L 15 15 L 15 17 L 13 17 Z M 17 15 L 19 15 L 19 17 L 17 17 Z M 21 15 L 23 15 L 23 17 L 21 17 Z M 25 15 L 27 15 L 27 17 L 25 17 Z M 29 15 L 31 15 L 31 17 L 29 17 Z M 33 15 L 35 15 L 35 17 L 33 17 Z M 13 18 L 35 18 L 35 30 L 13 30 Z M 13 31 L 15 31 L 15 33 L 13 33 Z M 17 31 L 19 31 L 19 33 L 17 33 Z M 21 31 L 23 31 L 23 33 L 21 33 Z M 25 31 L 27 31 L 27 33 L 25 33 Z M 29 31 L 31 31 L 31 33 L 29 33 Z M 33 31 L 35 31 L 35 33 L 33 33 Z M 33 31 "/>
     <path d="M 22 20 L 22 28 L 28 24 Z M 22 20 "/>
    </g>
   </g>
  </g>
 </g>
 <g>
  <g clip-path="url(#3)">
   <g transform="translate(0,-1)">
    <g>
     <path d="M 11.890625 14 C 11.40625 14 11 14.394531 11 14.875 C 11 21.082031 11 27.570312 11 33.15625 C 11 33.632812 11.40625 34 11.890625 34 L 36.109375 34 C 36.59375 34 37 33.632812 37 33.15625 C 37 26.957031 37 20.523438 37 14.875 C 37 14.394531 36.59375 14 36.109375 14 Z M 13 15 L 15 15 L 15 17 L 13 17 Z M 17 15 L 19 15 L 19 17 L 17 17 Z M 21 15 L 23 15 L 23 17 L 21 17 Z M 25 15 L 27 15 L 27 17 L 25 17 Z M 29 15 L 31 15 L 31 17 L 29 17 Z M 33 15 L 35 15 L 35 17 L 33 17 Z M 13 18 L 35 18 L 35 30 L 13 30 Z M 13 31 L 15 31 L 15 33 L 13 33 Z M 17 31 L 19 31 L 19 33 L 17 33 Z M 21 31 L 23 31 L 23 33 L 21 33 Z M 25 31 L 27 31 L 27 33 L 25 33 Z M 29 31 L 31 31 L 31 33 L 29 33 Z M 33 31 L 35 31 L 35 33 L 33 33 Z M 33 31 " fill="#f9f9f9"/>
     <path d="M 22 20 L 22 28 L 28 24 Z M 22 20 " fill="#f9f9f9"/>
    </g>
   </g>
  </g>
 </g>
 <g>
  <g transform="translate(0,-1004.3622)">
   <path d="m 1,1043.3622 0,4 c 0,2.216 1.784,4 4,4 l 38,0 c 2.216,0 4,-1.784 4,-4 l 0,-4 c 0,2.216 -1.784,4 -4,4 l -38,0 c -2.216,0 -4,-1.784 -4,-4 z" opacity="0.1"/>
  </g>
 </g>
</svg>
